X:7363
T:The Squirrel Hunters
O:england
M:4/4
L:1/8
Q:175
S:John Hartford's "Wild Hog in the Redbrush" transcribed by Llarry Brandon
K:D
|:"4"e3d .B2 Bd|efed .B2 BA|GABc d2 dc|dBcA BcBA|
"4"e3d .B2 Bd|efed .B2 BA|GABc d2 B2|1"4" A8:|2"4" A6|
|:Bd|edeg a2ag|edef g2BA|GABc d2dc|dBcA BcBA|
edeg abag|edef g2BA|GABc d2B2|1"4"A6:|2"4"A8||


